X:1
T:Title
%%score ( 1 2 ) 3
L:1/8
Q:1/4=82
M:4/4
K:Ab
V:1 treble nm="Grand Piano, Soprano"
V:2 treble 
V:3 bass nm="Choir Pad, Follow Me (Bills)"
V:1
 [CE][CA][CA][CB] [DA][DG] [DG]2 | [DG][DF][DG][DF] [CF]2 [CE]2 | C[CE][CA][Ec] [=Dc][DB] [DF]2 | %3
w: By~Matthew~Lindsay~McPhail * * * * * *|||
 [=Dc][DB][DA][DF] [_DB]4 | [CE][CA][CA][CB] [DA][DG] [DG]2 | [DG][DF][DG][DF] [CF]2 [CE]2 | %6
w: |||
 C[CE][CA][Ec] [=Dc][DB] [DF]2 | [FA][EG][Ec][DB] [CA]4 | c2 E2 A4 | [CE][CF][CG][CA] [DA]2 [DG]2 | %10
w: ||||
 E2 d2 B4 | [DB][C=A][DB][=D_c] [E=c]4 | c2 E2 A4 | [CE][CF][CG][CA] [DB]2 [DF]2 | F2 .F2 c4 | %15
w: |||||
 [EA][EG][Ec][DB] [CA]4- | [CA]2 z2 z4 |] %17
w: ||
V:2
 x8 | x8 | x8 | x8 | x8 | x8 | x8 | x8 | CCCC CCC[CE] | x8 | DDDD DDD[DB] | x8 | CCCC CCC[CE] | %13
 x8 | DDd-[Fd] EEE[EA] | x8 | x8 |] %17
V:3
 [A,,A,][A,,E,][A,,A,][A,,A,] [E,B,][E,B,] [E,B,]2 | [E,B,][E,B,][E,B,][E,G,] [A,,A,]2 [A,,A,]2 | %2
 [A,,E,][A,,A,][A,,E,][A,,A,] [B,,F,][B,,F,] [B,,B,]2 | [B,,F,][B,,F,][B,,B,][B,,A,] [E,G,]4 | %4
 A,[A,,E,][A,,A,][A,,A,] [E,B,][E,B,] [E,B,]2 | [E,B,][E,B,][E,B,][E,G,] [A,,A,]2 [A,,A,]2 | %6
 [A,,E,][A,,A,][A,,E,][A,,A,] [B,,F,][B,,F,] [B,,B,]2 | [E,B,][E,B,][E,A,][E,G,] [A,,A,]4 | %8
 [A,,A,][A,,A,][A,,A,][A,,A,] [A,,E,][A,,E,][A,,E,][A,,E,] | %9
 [A,,A,][A,,A,][A,,E,][A,,A,] [B,,E,]2 [B,,E,]2 | %10
 [E,G,][E,G,][E,G,][E,G,] [E,G,][E,G,][E,G,][E,G,] | [E,G,][E,G,][E,G,][E,G,] [A,,A,]4 | %12
 [A,,A,][A,,A,][A,,A,][A,,A,] [A,,E,][A,,E,][A,,E,][A,,A,] | %13
 [A,,A,][A,,A,][A,,E,][A,,A,] [D,F,]2 [D,B,]2 | [D,A,][D,A,][D,A,][D,A,] [E,A,][E,A,][E,A,][E,C] | %15
 [E,C][E,B,][E,A,][E,G,] [A,,A,]4- | [A,,A,]2 z2 z4 |] %17

